packages/bezier-icons/icons/share.svg

<svg width="24" height="24" viewBox="0 0 24 24" fill="none" xmlns="http://www.w3.org/2000/svg">
<path d="M13.0002 5.20724L15.414 7.62113C15.8046 8.01165 16.4377 8.01165 16.8282 7.62113C17.2188 7.2306 17.2188 6.59744 16.8282 6.20691L13.0604 2.43902C12.4748 1.8535 11.5247 1.8535 10.9391 2.43902L7.17125 6.20691C6.78072 6.59744 6.78072 7.2306 7.17125 7.62113C7.56177 8.01165 8.19494 8.01165 8.58546 7.62113L11.0002 5.20644L11.0002 15C11.0002 15.5523 11.4479 16 12.0002 16C12.5524 16 13.0002 15.5523 13.0002 15L13.0002 5.20724Z" fill="#313234"/>
<path d="M6.00015 22.0001C3.79101 22.0001 2.00015 20.2093 2.00015 18.0001L2.00015 13.0001C2.00015 12.4478 2.44787 12.0001 3.00015 12.0001C3.55244 12.0001 4.00015 12.4478 4.00015 13.0001L4.00015 18.0001C4.00015 19.1047 4.89558 20.0001 6.00015 20.0001L18.0002 20.0001C19.1047 20.0001 20.0002 19.1047 20.0002 18.0001L20.0002 13.0001C20.0002 12.4478 20.4479 12.0001 21.0002 12.0001C21.5524 12.0001 22.0002 12.4478 22.0002 13.0001L22.0002 18.0001C22.0002 20.2093 20.2093 22.0001 18.0002 22.0001L6.00015 22.0001Z" fill="#313234"/>
</svg>

<svg xmlns="http://www.w3.org/2000/svg" width="24" height="24" fill="none" viewBox="0 0 24 24"><path fill="#313234" d="m13 5.207 2.414 2.414a1 1 0 1 0 1.414-1.414L13.06 2.439a1.5 1.5 0 0 0-2.12 0L7.17 6.207A1 1 0 1 0 8.585 7.62L11 5.206V15a1 1 0 1 0 2 0z"/><path fill="#313234" d="M6 22a4 4 0 0 1-4-4v-5a1 1 0 1 1 2 0v5a2 2 0 0 0 2 2h12a2 2 0 0 0 2-2v-5a1 1 0 1 1 2 0v5a4 4 0 0 1-4 4z"/></svg>
